X: 31883
T: Peace, Brothers, Peace
R: polka
M: 2/4
K: Gmajor
|:Bg Bg|cg c>B|AD F/G/A|Ge dc|
Bg Bg|cg c>B|AD F>G|AG G2:|
K: Dmaj
|:FG/F/ EF/E/|DF Ad|c>d ec|df A2|
FG/F/ EF/E/|DF Ad|cA Bc|1 d2 d2:|2 d2 =c2||

